!!!COM: Fux, Johann Joseph
!!!OMD: Gradus ad Parnassum Exercise
!!!YEC: CC0 1.0 Universal (Public Domain). Mark Gotham and FourScoreAndMore.org waive all rights to this document.
**kern	**kern	**kern
*part3	*part2	*part1
*staff3	*staff2	*staff1
*I"3	*I"2	*I"1
*I'Pno	*I'Pno	*I'Pno
!!LO:LB:g=z
*clefF4	*clefGv2	*clefG2
*k[]	*k[]	*k[]
!!LO:TX:omd:t=
*M4/4	*M4/4	*M4/4
=298	=298	=298
!	!	!LO:TX:a:t=Fig. 131; Species&colon; 3; Modal final&colon; d; Cantus firmus&colon; 3
1D	1A	4d/
.	.	4e/
.	.	4f/
.	.	4g/
=299	=299	=299
1F	1A	4a/
.	.	4A/
.	.	4c/
.	.	4d/
=300	=300	=300
1E	1c#X	4e/
.	.	4f/
.	.	4g/
.	.	4e/
=301	=301	=301
1D	1d	4f/
.	.	4a/
.	.	4f/
.	.	4e/
=302	=302	=302
1G	1B-X	4d/
.	.	4B-X/
.	.	4d/
.	.	4e/
!!LO:LB:g=z
=303	=303	=303
1F	1A	4f/
.	.	4a/
.	.	4g/
.	.	4f/
=304	=304	=304
1A	1c	4e/
.	.	4c/
.	.	4e/
.	.	4f/
=305	=305	=305
1G	1B-X	4g/
.	.	4e/
.	.	4f/
.	.	4g/
=306	=306	=306
1F	1A	4a/
.	.	4A/
.	.	4c/
.	.	4d/
=307	=307	=307
1E	1G	4e/
.	.	4d/
.	.	4B/
.	.	4c#X/
=308	=308	=308
1D	1F#X	1d
==	==	==
*-	*-	*-
!!!software: music21 v.9.7.1
!!!software: music21 v.9.7.1
!!!software: MuseScore 3.4.2
!!!RDF**kern: > = above
!!!RDF**kern: < = below
